X: 41070
T: Trip To Norway, The
R: waltz
M: 3/4
K: Dmajor
A/A/A|Ad d2 AG|FA A2 FE|DE F2 G2|E4 A/A/A|Ae e2 cB|Ae c2 Bc|de f2 e2|d4 A/A/A|
Ad cd Bd|Af d2 AG|FG AB cd|e4 A/A/A|Ae ce Be|Ae c2 Bc|de f2 e2|d4 A2|
|:f3 efe|d3 ABA|aA gA fA|e3 Ace|gfedcd|edcBAG|FGAGFE|D4 A2:|
aA fA eA|dA cA BA|A/A/A GA FA|E4 A/A/A|aA gA eA|cA GA BA|GA FA EA|D4 A/A/A|
aA fA eA|dA cA BA|A/A/A GA FA|E4 A/A/A|aA gA eA|cA GA BA|GA BA ce|d4|

